lib/flags/fj-fiji.svg

<svg xmlns="http://www.w3.org/2000/svg" fill="none" aria-hidden="true" viewBox="0 0 42 30"><g id="Country=FJ - Fiji, Size=sm (36x24)" filter="url(#filter0_dd_91_28322)"><g clip-path="url(#clip0_91_28322)"><g id="flag"><mask id="mask0_91_28322" width="36" height="24" x="3" y="2" maskUnits="userSpaceOnUse" style="mask-type:alpha"><rect id="mask" width="36" height="24" x="3" y="2" fill="white"/></mask><g mask="url(#mask0_91_28322)"><g id="contents"><path id="background" fill="#67BFE5" fill-rule="evenodd" d="M3 2V26H39V2H3Z" clip-rule="evenodd"/><mask id="mask1_91_28322" width="36" height="24" x="3" y="2" maskUnits="userSpaceOnUse" style="mask-type:alpha"><path id="background_2" fill="white" fill-rule="evenodd" d="M3 2V26H39V2H3Z" clip-rule="evenodd"/></mask><g mask="url(#mask1_91_28322)"><g id="mark"><path id="Rectangle 17" fill="#F7FCFF" fill-rule="evenodd" d="M25.5 12H36.3621V20.3333C36.3621 20.3333 35.4512 24 30.931 24C26.4109 24 25.5 20.3333 25.5 20.3333V12Z" clip-rule="evenodd"/><mask id="mask2_91_28322" width="12" height="12" x="25" y="12" maskUnits="userSpaceOnUse" style="mask-type:alpha"><path id="Rectangle 17_2" fill="white" fill-rule="evenodd" d="M25.5 12H36.3621V20.3333C36.3621 20.3333 35.4512 24 30.931 24C26.4109 24 25.5 20.3333 25.5 20.3333V12Z" clip-rule="evenodd"/></mask><g mask="url(#mask2_91_28322)"><g id="red"><rect id="Rectangle 18" width="10.8621" height="3" x="25.5" y="12" fill="#C3352C"/><rect id="Rectangle 19" width="1.55172" height="9.33333" x="30.1553" y="14.6667" fill="#C3352C"/><rect id="Rectangle 20" width="10.8621" height="1.33333" x="25.5" y="18.3333" fill="#C3352C"/></g><g id="dove"><path id="Path 48" fill="#979797" fill-rule="evenodd" d="M28.3583 22.737C29.0114 23.5576 29.5437 23.878 29.9199 23.3943C30.1843 23.0545 30.2115 22.7146 29.8349 22.648C29.6164 22.4012 29.4621 22.2087 29.3741 22.0744L29.3867 22.0638C29.4924 21.9725 29.4963 21.8508 29.4755 21.8054C29.4676 21.7433 29.5199 21.6589 29.8594 21.4282C30.1668 21.2193 30.3032 21.0226 30.1017 20.8059C29.9958 20.692 29.9006 20.6692 29.6003 20.628L29.5081 20.6152C29.4192 20.6026 29.3546 20.59 29.3139 20.5791L29.1052 20.2235C28.6691 20.2116 28.3284 20.28 27.9557 20.4198C27.7951 20.4801 27.6869 20.5211 27.6147 20.5484C27.5045 20.5901 27.4781 20.6001 27.4774 20.5985C27.4772 20.598 27.4795 20.5964 27.4825 20.5943C27.4912 20.5882 27.5056 20.578 27.4847 20.578C27.4061 20.578 27.3209 20.5702 27.0848 20.5435L27.0384 20.5383C26.3595 20.4625 26.1894 20.4649 26.0794 20.7459C25.912 21.1733 26.9031 21.9569 27.4292 22.0511C27.6928 22.0982 28.0082 22.3225 28.3583 22.737ZM29.0966 22.1485C29.1605 22.1485 29.2097 22.1462 29.2531 22.1358L29.2662 22.1101C29.2309 22.1315 29.1778 22.1485 29.0966 22.1485ZM26.6186 20.9681C26.6047 20.9536 26.6009 20.9349 26.6106 20.9102C26.6086 20.9153 26.6149 20.9263 26.6282 20.9418L26.6186 20.9681ZM26.6858 21C26.6609 20.977 26.6412 20.9572 26.6282 20.9418L26.6187 20.9681C26.6323 20.9822 26.6557 20.9924 26.6858 21ZM27.5403 21.5609C27.3517 21.5272 26.872 21.1724 26.6858 21C26.7347 21.0125 26.8012 21.0185 26.8728 21.0251H26.8728C26.9041 21.0279 26.9363 21.0308 26.9684 21.0344L27.014 21.0395C27.2793 21.0695 27.3719 21.078 27.4848 21.078C27.5498 21.078 27.5364 21.098 27.5282 21.1101C27.5258 21.1137 27.5238 21.1167 27.5246 21.1181C27.5278 21.1242 27.5781 21.1052 27.8361 21.0079C27.9232 20.975 28.034 20.9332 28.1745 20.8805C28.3737 20.8057 28.5556 20.7573 28.7551 20.7355C28.7772 20.8192 28.832 20.895 28.9213 20.9566C29.041 21.0391 29.1764 21.0739 29.4091 21.1075C29.1198 21.3191 28.9746 21.4961 28.9288 21.6687C28.6686 21.7418 28.6923 22.0025 28.8484 22.263C28.9572 22.4446 29.1629 22.702 29.4689 23.0424L29.6886 23.1363C29.6237 23.1363 29.5875 23.1099 29.56 23.0899C29.5253 23.0645 29.5045 23.0493 29.4573 23.11C29.4541 23.1141 29.2494 22.9909 28.8129 22.4425C28.3831 21.9335 27.9662 21.6371 27.5403 21.5609ZM28.912 21.8605C28.916 21.8576 28.9156 21.8537 28.9152 21.8498L28.9152 21.8497L28.912 21.8605ZM29.0919 21.6486L29.0751 21.6488L29.0829 21.6493C29.086 21.6488 29.089 21.6486 29.0919 21.6486ZM29.0966 21.6485C29.095 21.6485 29.0935 21.6485 29.0919 21.6486Z" clip-rule="evenodd"/></g><g id="tree"><path id="Path 50" stroke="#964C36" d="M27.3619 18.1102C27.3619 18.1102 26.8252 17.4501 26.8252 17.2148"/><path id="Path 49" stroke="#2A8E51" d="M27.0285 17.5429C27.0285 17.5429 26.3423 17.2823 26.3423 17.5429"/><path id="Path 51" stroke="#2A8E51" d="M27.0174 17.2687C27.0174 17.2687 26.5347 16.7229 26.1718 16.7229C25.8089 16.7229 25.8176 16.9958 25.8176 16.9958"/><path id="Path 52" stroke="#2A8E51" d="M26.7417 16.7219C26.7417 16.7219 26.5263 15.8291 26.1814 15.8291C25.8364 15.8291 25.8364 16.2755 25.8364 16.2755"/><path id="Path 53" stroke="#2A8E51" d="M26.8291 16.7202C26.8291 16.7202 26.733 15.9551 27.1772 15.9551"/></g><g id="tree_2"><path id="Path 50_2" stroke="#964C36" d="M28.0436 17.9811C28.0436 17.9811 27.7933 17.1977 27.8838 16.9766"/><path id="Path 49_2" stroke="#2A8E51" d="M27.9492 17.3467C27.9492 17.3467 27.4046 16.8932 27.3044 17.138"/><path id="Path 51_2" stroke="#2A8E51" d="M28.0441 17.0857C28.0441 17.0857 27.8005 16.4261 27.4595 16.3158C27.1185 16.2054 27.0216 16.4645 27.0216 16.4645"/><path id="Path 52_2" stroke="#2A8E51" d="M27.9955 16.4882C27.9955 16.4882 28.1366 15.5838 27.8124 15.4789C27.4883 15.374 27.3165 15.7935 27.3165 15.7935"/><path id="Path 53_2" stroke="#2A8E51" d="M28.0781 16.513C28.0781 16.513 28.2822 15.7648 28.6996 15.8998"/></g><g id="tree_3"><path id="Path 50_3" stroke="#964C36" stroke-width="0.7" d="M28.5962 18.2602C28.5962 18.2602 28.9521 17.5098 28.8926 17.2805"/><path id="Path 49_3" stroke="#2A8E51" stroke-width="0.7" d="M28.7774 17.6406C28.7774 17.6406 29.3801 17.2495 29.4461 17.5034"/><path id="Path 51_3" stroke="#2A8E51" stroke-width="0.7" d="M28.7189 17.3714C28.7189 17.3714 29.0511 16.743 29.4047 16.6705C29.7582 16.5979 29.8189 16.8656 29.8189 16.8656"/><path id="Path 52_3" stroke="#2A8E51" stroke-width="0.7" d="M28.8492 16.7836C28.8492 16.7836 28.8332 15.8706 29.1693 15.8016C29.5054 15.7327 29.6183 16.1676 29.6183 16.1676"/><path id="Path 53_3" stroke="#2A8E51" stroke-width="0.7" d="M28.7639 16.7992C28.7639 16.7992 28.6639 16.0345 28.2311 16.1233"/></g><g id="tree_4"><g id="Group 3"><path id="Path 46" stroke="#2A8E51" stroke-width="0.7" d="M33.0352 17.8017C33.0352 17.8017 33.3074 16.6882 34.0821 16.6882C34.8568 16.6882 35.2035 17.8646 35.2035 17.8646"/><path id="Path 47" stroke="#2A8E51" stroke-width="0.7" d="M32.3955 17.0416C32.3955 17.0416 32.8127 16.3839 34.1895 16.4377C35.5663 16.4914 35.8173 17.0416 35.8173 17.0416"/><path id="Path 58" stroke="#2A8E51" stroke-width="0.7" d="M32.1172 16.2052C32.1172 16.2052 32.8735 15.3725 33.9335 16.0784L34.2925 16.2052C34.2925 16.2052 34.6526 15.2616 36.3922 16.2052"/></g><path id="Path 50_4" stroke="#964C36" d="M34.2056 18.0369C34.2056 18.0369 34.2609 16.9976 34.4463 16.7122"/></g><g id="thingy"><path id="Path 55" stroke="#964C36" d="M35.7361 20.3141C35.7361 20.3141 35.0407 20.0233 34.8326 20.3141C34.6245 20.6048 32.1182 23.2759 32.1182 23.2759"/><path id="Path 54" fill="#FFF203" fill-rule="evenodd" d="M33.335 20.5953L34.8884 21.5606C34.8884 21.5606 35.6033 21.1072 35.2458 20.8513C34.8884 20.5953 33.9143 20.144 33.9143 20.144L33.335 20.5953Z" clip-rule="evenodd"/><path id="Path 56" fill="#00A651" fill-rule="evenodd" d="M33.2811 20.6445C33.2811 20.6445 32.9213 20.9794 32.9213 21.2354C32.9213 21.4913 32.5864 22.1774 32.5864 22.1774C32.5864 22.1774 33.5229 22.6898 33.7173 22.3634C33.9118 22.037 35.1747 22.2325 34.9519 21.7339C34.7292 21.2354 33.2811 20.6445 33.2811 20.6445Z" clip-rule="evenodd"/></g><path id="lion" fill="#FFD100" fill-rule="evenodd" d="M26.6885 13.1823C26.6885 13.1823 27.518 12.804 27.9286 13.1823C28.3392 13.5607 28.6755 13.151 28.6755 12.9228C28.6755 12.6945 29.3275 11.9111 29.3275 12.5467C29.3275 13.1823 29.1246 13.5412 29.6976 13.5412C30.2707 13.5412 32.8511 12.6632 33.4699 12.9228C34.0887 13.1823 34.5622 13.1178 34.4049 12.7453C34.2476 12.3729 33.8434 12.1401 33.0649 12.3434C32.2865 12.5467 32.4702 12.7453 31.7974 12.7453C31.1246 12.7453 30.3758 12.5467 30.3758 12.5467C30.3758 12.5467 30.5861 12.2127 31.3542 12.4503C32.1223 12.6879 33.1818 12.1561 33.4699 12.1561C33.7581 12.1561 34.5511 12.1401 34.6297 12.3434C34.7083 12.5467 35.1871 12.7332 34.8221 12.9228C34.4571 13.1123 33.8553 13.231 34.2694 13.4738C34.6835 13.7166 35.6358 13.6698 35.6816 13.9224C35.7275 14.175 36.1788 14.5521 35.9977 14.5521C35.8166 14.5521 35.4892 14.9078 35.1844 14.7995C34.8796 14.6912 34.8437 14.5961 35.136 14.5084C35.4283 14.4206 35.4255 14.0517 35.1844 14.0517C34.9433 14.0517 35.061 14.1809 34.5121 14.0517C33.9632 13.9224 33.2367 13.7787 33.2804 14.0517C33.324 14.3246 33.6814 14.7437 33.0221 14.7995C32.3627 14.8554 32.0541 15.0796 31.9257 14.899C31.7974 14.7185 31.3387 14.4779 31.6994 14.4007C32.0601 14.3236 32.4048 14.663 32.5347 14.6075C32.6646 14.5521 32.9591 14.5213 32.7124 14.2865C32.4658 14.0517 32.0592 13.9134 32.4362 13.7377C32.8131 13.5619 32.5157 13.5583 31.7974 13.9224C31.0791 14.2865 30.6796 14.5959 30.0491 14.5521C29.4185 14.5084 29.1823 14.5674 28.9796 14.5084C28.777 14.4494 27.7899 15.1605 27.5056 14.98C27.2214 14.7995 26.3038 14.7303 26.469 14.5084C26.6342 14.2865 26.8559 14.1722 27.1029 14.2865C27.35 14.4007 27.5954 14.515 27.762 14.4007C27.9286 14.2865 28.4096 13.8944 28.2886 13.8161C28.1676 13.7377 28.2847 13.4738 27.5995 13.4738C26.9144 13.4738 26.6736 13.7679 26.5109 13.5826C26.3483 13.3973 26.6885 13.1823 26.6885 13.1823Z" clip-rule="evenodd"/></g></g><g id="gb - large"><g id="flag_2"><rect id="mask_2" width="20.25" height="14" x="3" y="2" fill="#2B409A"/><mask id="mask3_91_28322" width="21" height="14" x="3" y="2" maskUnits="userSpaceOnUse" style="mask-type:alpha"><rect id="mask_3" width="20.25" height="14" x="3" y="2" fill="white"/></mask><g mask="url(#mask3_91_28322)"><g id="contents_2"><g id="stripe"><path id="white" fill="#F7FCFF" d="M0.745117 14.9999L5.20119 16.7371L23.351 3.88878L25.7015 1.30725L20.9364 0.726627L13.5335 6.26332L7.57493 9.99375L0.745117 14.9999Z"/><path id="red_2" fill="#F50100" d="M1.35498 16.217L3.62514 17.2251L24.8573 1.06738H21.6697L1.35498 16.217Z"/></g><g id="stripe_2"><path id="white_2" fill="#F7FCFF" d="M25.5049 14.9999L21.0488 16.7371L2.89897 3.88878L0.548492 1.30725L5.31362 0.726627L12.7165 6.26332L18.6751 9.99375L25.5049 14.9999Z"/><path id="red_3" fill="#F50100" d="M25.353 15.8732L23.0829 16.8813L14.042 9.96339L11.3616 9.19046L0.322518 1.31593H3.51009L14.5429 9.00356L17.4735 9.93038L25.353 15.8732Z"/></g><g id="cross"><g id="red_4"><mask id="path-40-outside-1_91_28322" width="24" height="18" x="1" y="0" fill="black" maskUnits="userSpaceOnUse"><rect width="24" height="18" x="1" fill="white"/><path fill-rule="evenodd" d="M14.2326 2H11.9826V8H3V10H11.9826V16H14.2326V10H23.25V8H14.2326V2Z" clip-rule="evenodd"/></mask><path fill="#F50100" fill-rule="evenodd" d="M14.2326 2H11.9826V8H3V10H11.9826V16H14.2326V10H23.25V8H14.2326V2Z" clip-rule="evenodd"/><path fill="#F7FCFF" d="M11.9826 2V0.5H10.4826V2H11.9826ZM14.2326 2H15.7326V0.5H14.2326V2ZM11.9826 8V9.5H13.4826V8H11.9826ZM3 8V6.5H1.5V8H3ZM3 10H1.5V11.5H3V10ZM11.9826 10H13.4826V8.5H11.9826V10ZM11.9826 16H10.4826V17.5H11.9826V16ZM14.2326 16V17.5H15.7326V16H14.2326ZM14.2326 10V8.5H12.7326V10H14.2326ZM23.25 10V11.5H24.75V10H23.25ZM23.25 8H24.75V6.5H23.25V8ZM14.2326 8H12.7326V9.5H14.2326V8ZM11.9826 3.5H14.2326V0.5H11.9826V3.5ZM13.4826 8V2H10.4826V8H13.4826ZM3 9.5H11.9826V6.5H3V9.5ZM4.5 10V8H1.5V10H4.5ZM11.9826 8.5H3V11.5H11.9826V8.5ZM13.4826 16V10H10.4826V16H13.4826ZM14.2326 14.5H11.9826V17.5H14.2326V14.5ZM12.7326 10V16H15.7326V10H12.7326ZM23.25 8.5H14.2326V11.5H23.25V8.5ZM21.75 8V10H24.75V8H21.75ZM14.2326 9.5H23.25V6.5H14.2326V9.5ZM12.7326 2V8H15.7326V2H12.7326Z" mask="url(#path-40-outside-1_91_28322)"/></g></g></g></g></g></g></g></g></g></g></g></g><defs><filter id="filter0_dd_91_28322" width="42" height="30" x="0" y="0" color-interpolation-filters="sRGB" filterUnits="userSpaceOnUse"><feFlood flood-opacity="0" result="BackgroundImageFix"/><feColorMatrix in="SourceAlpha" result="hardAlpha" values="0 0 0 0 0 0 0 0 0 0 0 0 0 0 0 0 0 0 127 0"/><feOffset dy="1"/><feGaussianBlur stdDeviation="1"/><feColorMatrix values="0 0 0 0 0.0627451 0 0 0 0 0.0941176 0 0 0 0 0.156863 0 0 0 0.06 0"/><feBlend in2="BackgroundImageFix" result="effect1_dropShadow_91_28322"/><feColorMatrix in="SourceAlpha" result="hardAlpha" values="0 0 0 0 0 0 0 0 0 0 0 0 0 0 0 0 0 0 127 0"/><feOffset dy="1"/><feGaussianBlur stdDeviation="1.5"/><feColorMatrix values="0 0 0 0 0.0627451 0 0 0 0 0.0941176 0 0 0 0 0.156863 0 0 0 0.1 0"/><feBlend in2="effect1_dropShadow_91_28322" result="effect2_dropShadow_91_28322"/><feBlend in="SourceGraphic" in2="effect2_dropShadow_91_28322" result="shape"/></filter><clipPath id="clip0_91_28322"><rect width="36" height="24" x="3" y="2" fill="white" rx="2"/></clipPath></defs></svg>

<svg xmlns="http://www.w3.org/2000/svg" fill="none" aria-hidden="true" viewBox="0 0 42 30"><g filter="url(#a)"><g clip-path="url(#b)"><mask id="c" width="36" height="24" x="3" y="2" maskUnits="userSpaceOnUse" style="mask-type:alpha"><path fill="#fff" d="M3 2h36v24H3z"/></mask><g mask="url(#c)"><path fill="#67BFE5" fill-rule="evenodd" d="M3 2v24h36V2H3Z" clip-rule="evenodd"/><mask id="d" width="36" height="24" x="3" y="2" maskUnits="userSpaceOnUse" style="mask-type:alpha"><path fill="#fff" fill-rule="evenodd" d="M3 2v24h36V2H3Z" clip-rule="evenodd"/></mask><g mask="url(#d)"><path fill="#F7FCFF" fill-rule="evenodd" d="M25.5 12h10.862v8.333S35.452 24 30.931 24c-4.52 0-5.431-3.667-5.431-3.667V12Z" clip-rule="evenodd"/><mask id="e" width="12" height="12" x="25" y="12" maskUnits="userSpaceOnUse" style="mask-type:alpha"><path fill="#fff" fill-rule="evenodd" d="M25.5 12h10.862v8.333S35.452 24 30.931 24c-4.52 0-5.431-3.667-5.431-3.667V12Z" clip-rule="evenodd"/></mask><g mask="url(#e)"><g fill="#C3352C"><path d="M25.5 12h10.862v3H25.5z"/><path d="M30.155 14.667h1.552V24h-1.552z"/><path d="M25.5 18.333h10.862v1.333H25.5z"/></g><path fill="#979797" fill-rule="evenodd" d="M28.358 22.737c.653.82 1.186 1.141 1.562.657.264-.34.291-.68-.085-.746a5.603 5.603 0 0 1-.46-.574l.012-.01c.105-.091.11-.213.088-.259-.007-.062.045-.146.384-.377.308-.209.444-.405.243-.622-.106-.114-.201-.137-.502-.178l-.092-.013a1.764 1.764 0 0 1-.194-.036l-.209-.355a2.858 2.858 0 0 0-1.15.196l-.34.128c-.11.042-.137.052-.138.05l.006-.004c.008-.006.023-.016.002-.016a3.75 3.75 0 0 1-.4-.034l-.047-.006c-.678-.076-.849-.073-.959.208-.167.427.824 1.21 1.35 1.305.264.047.58.272.93.686Zm.739-.588a.68.68 0 0 0 .156-.013l.013-.026a.322.322 0 0 1-.17.038Zm-2.478-1.18c-.014-.015-.018-.034-.008-.059-.002.005.004.016.017.032l-.01.026Zm.067.031a.707.707 0 0 1-.058-.058l-.01.026a.142.142 0 0 0 .068.032Zm.854.56c-.188-.033-.668-.388-.854-.56.049.012.115.018.187.025l.095.01.046.005c.265.03.358.038.47.038.066 0 .052.02.044.032-.002.004-.004.007-.003.008.003.006.053-.013.311-.11l.338-.127c.2-.075.382-.124.581-.146.022.084.077.16.166.222.12.082.255.117.488.15-.29.212-.434.39-.48.562-.26.073-.237.334-.08.594.108.182.314.439.62.78l.22.093a.2.2 0 0 1-.129-.046c-.035-.026-.055-.04-.103.02-.003.004-.208-.12-.644-.668-.43-.509-.847-.805-1.273-.881Zm1.372.3c.004-.002.004-.006.003-.01l-.003.01Zm.18-.211h-.017.017Zm.005 0h-.005Z" clip-rule="evenodd"/><path stroke="#964C36" d="M27.362 18.11s-.537-.66-.537-.895"/><path stroke="#2A8E51" d="M27.029 17.543s-.687-.26-.687 0m.675-.274s-.482-.546-.845-.546-.354.273-.354.273m.924-.274s-.216-.893-.56-.893c-.346 0-.346.447-.346.447m.994.444s-.097-.765.347-.765"/><path stroke="#964C36" d="M28.044 17.981s-.25-.783-.16-1.004"/><path stroke="#2A8E51" d="M27.95 17.347s-.545-.454-.646-.209m.74-.052s-.244-.66-.585-.77c-.34-.11-.437.149-.437.149m.973.023s.142-.904-.183-1.01c-.324-.104-.495.316-.495.316m.761.719s.204-.748.622-.613"/><g stroke-width=".7"><path stroke="#964C36" d="M28.596 18.26s.356-.75.297-.98"/><path stroke="#2A8E51" d="M28.777 17.64s.603-.39.67-.137m-.728-.132s.332-.628.686-.7c.353-.073.414.195.414.195m-.969-.082s-.017-.913.32-.982c.335-.07.448.366.448.366m-.854.632s-.1-.765-.533-.677"/></g><g stroke="#2A8E51" stroke-width=".7"><path d="M33.035 17.802s.272-1.114 1.047-1.114c.775 0 1.121 1.177 1.121 1.177"/><path d="M32.395 17.042s.418-.658 1.794-.604c1.377.053 1.628.604 1.628.604m-3.7-.837s.757-.832 1.817-.127l.358.127s.36-.943 2.1 0"/></g><path stroke="#964C36" d="M34.206 18.037s.055-1.04.24-1.325m1.29 3.602s-.695-.29-.903 0c-.209.29-2.715 2.962-2.715 2.962"/><path fill="#FFF203" fill-rule="evenodd" d="m33.335 20.595 1.553.966s.715-.454.358-.71c-.358-.256-1.332-.707-1.332-.707l-.579.451Z" clip-rule="evenodd"/><path fill="#00A651" fill-rule="evenodd" d="M33.281 20.645s-.36.334-.36.59c0 .256-.335.942-.335.942s.937.513 1.131.186c.195-.326 1.458-.13 1.235-.63-.223-.498-1.67-1.088-1.67-1.088Z" clip-rule="evenodd"/><path fill="#FFD100" fill-rule="evenodd" d="M26.689 13.182s.829-.378 1.24 0c.41.379.747-.031.747-.26 0-.228.652-1.01.652-.375s-.203.994.37.994 3.153-.878 3.772-.618c.619.26 1.092.195.935-.178-.157-.372-.562-.605-1.34-.402-.779.204-.595.402-1.268.402-.672 0-1.421-.198-1.421-.198s.21-.334.978-.097c.768.238 1.828-.294 2.116-.294.288 0 1.081-.016 1.16.187.078.204.557.39.192.58-.365.19-.967.308-.553.55.415.244 1.367.197 1.413.45.045.252.497.63.316.63s-.509.355-.814.246c-.304-.108-.34-.203-.048-.29.292-.088.29-.457.048-.457-.24 0-.123.129-.672 0-.549-.13-1.275-.273-1.232 0 .044.273.401.692-.258.748-.66.055-.968.28-1.096.099-.129-.18-.587-.421-.227-.498.361-.077.706.262.836.207.13-.056.424-.087.177-.322-.246-.234-.653-.373-.276-.548.377-.176.08-.18-.639.184-.718.364-1.117.674-1.748.63-.63-.044-.867.015-1.07-.044-.202-.059-1.19.653-1.473.472-.285-.18-1.202-.25-1.037-.472.165-.221.387-.336.634-.221.247.114.492.228.659.114.167-.114.648-.507.527-.585-.121-.078-.004-.342-.69-.342-.685 0-.925.294-1.088.109-.163-.186.178-.4.178-.4Z" clip-rule="evenodd"/></g><path fill="#2B409A" d="M3 2h20.25v14H3z"/><mask id="f" width="21" height="14" x="3" y="2" maskUnits="userSpaceOnUse" style="mask-type:alpha"><path fill="#fff" d="M3 2h20.25v14H3z"/></mask><g mask="url(#f)"><path fill="#F7FCFF" d="m.745 15 4.456 1.737L23.351 3.89l2.35-2.582-4.765-.58-7.402 5.536-5.96 3.73L.746 15Z"/><path fill="#F50100" d="m1.355 16.217 2.27 1.008L24.857 1.067H21.67L1.355 16.217Z"/><path fill="#F7FCFF" d="m25.505 15-4.456 1.737L2.899 3.89.549 1.307l4.765-.58 7.402 5.536 5.96 3.73L25.504 15Z"/><path fill="#F50100" d="m25.353 15.873-2.27 1.008-9.041-6.918-2.68-.773L.322 1.316H3.51l11.033 7.688 2.93.926 7.88 5.943Z"/><mask id="g" width="24" height="18" x="1" y="0" fill="#000" maskUnits="userSpaceOnUse"><path fill="#fff" d="M1 0h24v18H1z"/><path fill-rule="evenodd" d="M14.233 2h-2.25v6H3v2h8.983v6h2.25v-6h9.017V8h-9.017V2Z" clip-rule="evenodd"/></mask><path fill="#F50100" fill-rule="evenodd" d="M14.233 2h-2.25v6H3v2h8.983v6h2.25v-6h9.017V8h-9.017V2Z" clip-rule="evenodd"/><path fill="#F7FCFF" d="M11.983 2V.5h-1.5V2h1.5Zm2.25 0h1.5V.5h-1.5V2Zm-2.25 6v1.5h1.5V8h-1.5ZM3 8V6.5H1.5V8H3Zm0 2H1.5v1.5H3V10Zm8.983 0h1.5V8.5h-1.5V10Zm0 6h-1.5v1.5h1.5V16Zm2.25 0v1.5h1.5V16h-1.5Zm0-6V8.5h-1.5V10h1.5Zm9.017 0v1.5h1.5V10h-1.5Zm0-2h1.5V6.5h-1.5V8Zm-9.017 0h-1.5v1.5h1.5V8Zm-2.25-4.5h2.25v-3h-2.25v3Zm1.5 4.5V2h-3v6h3ZM3 9.5h8.983v-3H3v3Zm1.5.5V8h-3v2h3Zm7.483-1.5H3v3h8.983v-3Zm1.5 7.5v-6h-3v6h3Zm.75-1.5h-2.25v3h2.25v-3Zm-1.5-4.5v6h3v-6h-3ZM23.25 8.5h-9.017v3h9.017v-3Zm-1.5-.5v2h3V8h-3Zm-7.517 1.5h9.017v-3h-9.017v3Zm-1.5-7.5v6h3V2h-3Z" mask="url(#g)"/></g></g></g></g></g><defs><clipPath id="b"><rect width="36" height="24" x="3" y="2" fill="#fff" rx="2"/></clipPath><filter id="a" width="42" height="30" x="0" y="0" color-interpolation-filters="sRGB" filterUnits="userSpaceOnUse"><feFlood flood-opacity="0" result="BackgroundImageFix"/><feColorMatrix in="SourceAlpha" result="hardAlpha" values="0 0 0 0 0 0 0 0 0 0 0 0 0 0 0 0 0 0 127 0"/><feOffset dy="1"/><feGaussianBlur stdDeviation="1"/><feColorMatrix values="0 0 0 0 0.0627451 0 0 0 0 0.0941176 0 0 0 0 0.156863 0 0 0 0.06 0"/><feBlend in2="BackgroundImageFix" result="effect1_dropShadow_91_28322"/><feColorMatrix in="SourceAlpha" result="hardAlpha" values="0 0 0 0 0 0 0 0 0 0 0 0 0 0 0 0 0 0 127 0"/><feOffset dy="1"/><feGaussianBlur stdDeviation="1.5"/><feColorMatrix values="0 0 0 0 0.0627451 0 0 0 0 0.0941176 0 0 0 0 0.156863 0 0 0 0.1 0"/><feBlend in2="effect1_dropShadow_91_28322" result="effect2_dropShadow_91_28322"/><feBlend in="SourceGraphic" in2="effect2_dropShadow_91_28322" result="shape"/></filter></defs></svg>
